!!!COM: Palestrina, Giovanni Perluigi da
!!!OPR: Memor esto
!!!OTL: Sanctus
**kern	**kern	**kern	**kern	**kern
*Ibass	*Itenor	*Itenor	*Icalto	*Icant
!Bassus	!Tenor 2	!Tenor 1	!Altus	!Cantus
*clefF4	*clefGv2	*clefGv2	*clefG2	*clefG2
*k[b-]	*k[b-]	*k[b-]	*k[b-]	*k[b-]
*G:dor	*G:dor	*G:dor	*G:dor	*G:dor
*M4/2	*M4/2	*M4/2	*M4/2	*M4/2
=1	=1	=1	=1	=1
0r	0r	0r	1.g	2.g
.	.	.	.	4a
.	.	.	.	4b-
.	.	.	.	4cc
.	.	.	2g	2dd
=2	=2	=2	=2	=2
0r	0r	0r	1g	2g
.	.	.	.	2b-
.	.	.	1f	1a
=3	=3	=3	=3	=3
0r	1.d	2.G	2.b-	2.dd
.	.	4A	4a	4cc
.	.	4B-	2g	2b-
.	.	4c	.	.
.	2d	2d	2f	2a
=4	=4	=4	=4	=4
0r	1d	2G	2g	2b-
.	.	2B-	2d	2g
.	1c	1A	1e	1a
=5	=5	=5	=5	=5
0r	2.f	2.d	2r	2a
.	.	.	1d	1ff
.	4e	4e	.	.
.	2d	4f	.	.
.	.	4g	.	.
.	2c	[2a	2e	2ee
=6	=6	=6	=6	=6
0r	2d	2a]	2f	2dd
.	2A	2a	2c	2.ee
.	1B-	4g	1d	.
.	.	4f	.	4dd
.	.	4f	.	[2dd
.	.	8e	.	.
.	.	8d	.	.
=7	=7	=7	=7	=7
1r	1A	1e	1a	2dd]
.	.	.	.	2cc#
[1G	2.B-	1d	1g	2dd
.	.	.	.	4g
.	4c	.	.	4a
=8	=8	=8	=8	=8
2G]	1.d	2r	1r	4b-
.	.	.	.	4cc
2G	.	4G	.	2dd
.	.	4A	.	.
1G	.	4B-	2.d	2g
.	.	4c	.	.
.	2G	[2d	.	2b-
.	.	.	4e	.
=9	=9	=9	=9	=9
1F	1A	4d]	4f	1a
.	.	4c	4g	.
.	.	2.f	2a	.
2.B-	2r	.	1d	2.b-
.	.	4e	.	.
.	4G	4d	.	.
4A	4A	4c	.	4cc
=10	=10	=10	=10	=10
2G	4B-	2B-	2r	0dd
.	4c	.	.	.
2F	1d	2A	2a	.
2G	.	2B-	2g	.
2D	2d	2F	[2a	.
=11	=11	=11	=11	=11
1E-	4c	1G	4a]	1r
.	4B-	.	4g	.
.	4B-	.	1g	.
.	8A	.	.	.
.	8G	.	.	.
1D	1d	1A	.	2.dd
.	.	.	2f#	.
.	.	.	.	4cc
=12	=12	=12	=12	=12
1G	1d	2G	1g	2b-
.	.	1g	.	4a
.	.	.	.	4g
2.d	2r	.	1r	1a
.	[2d	2f#	.	.
4c	.	.	.	.
=13	=13	=13	=13	=13
2B-	2d]	1g	2r	1g
4A	1e	.	1g	.
4G	.	.	.	.
1A	.	1c	.	2r
.	2c	.	2f#	[2cc
=14	=14	=14	=14	=14
1G	0r	1d	1g	2cc]
.	.	.	.	2b
1r	.	2e	1c	1cc
.	.	2A	.	.
=15	=15	=15	=15	=15
1r	2r	4B-	1d	1f
.	.	4c	.	.
.	2f	2d	.	.
2r	2e	1c	1e	1g
[2c	2c	.	.	.
=16	=16	=16	=16	=16
2c]	2d	1G	1d	0g
2B	4g	.	.	.
.	4f	.	.	.
1c	4e	1r	[1c	.
.	4d	.	.	.
.	2e	.	.	.
=17	=17	=17	=17	=17
1F	2f	2r	1c]	1a
.	2f	1c	.	.
1G	2d	.	1r	1g
.	[2g	2B	.	.
=18	=18	=18	=18	=18
1A	2g]	1c	2r	0r
.	2f#	.	1cc	.
2.G	1g	2e	.	.
.	.	[2d	2b	.
4F	.	.	.	.
=19	=19	=19	=19	=19
2E	1c	4d]	1cc	0r
.	.	4c	.	.
2F	.	2.c	.	.
1D	1d	.	1f	.
.	.	4B	.	.
.	.	4B	.	.
.	.	4A	.	.
=20	=20	=20	=20	=20
1C	2e-	1c	1g	2r
.	2e-	.	.	1gg
1r	1d	2r	1a	.
.	.	[2d	.	2ff#
=21	=21	=21	=21	=21
0r	1G	2d]	1b-	1gg
.	.	1e	.	.
.	1A	.	2.a	1cc
.	.	[2f	.	.
.	.	.	4g	.
=22	=22	=22	=22	=22
0r	1B-	4f]	2f	1dd
.	.	4d	.	.
.	.	1g	2b-	.
.	2c	.	2g	2ee-
.	[2g	2c	2g	2ee-
=23	=23	=23	=23	=23
1r	2g]	1d	2b-	0dd
.	2f#	.	2a	.
2r	2.g	1G	[1b-	.
[2G	.	.	.	.
.	4f	.	.	.
=24	=24	=24	=24	=24
2G]	2e	2r	2b-]	1r
2F	2f	1c	2a	.
1G	2d	.	[1g	1dd
.	4g	2B	.	.
.	4f	.	.	.
=25	=25	=25	=25	=25
1C	4e	1c	2g]	2ee
.	4d	.	.	.
.	2.e	.	4cc	2ee
.	.	.	4b-	.
1D	.	1F	4a	2ff
.	4d	.	4g	.
.	[2d	.	[2a	2f
=26	=26	=26	=26	=26
1E-	2d]	1G	4a]	2b-
.	.	.	4g	.
.	2c	.	1g	2g
1D	1d	2A	.	1dd
.	.	2A	2f#	.
=27	=27	=27	=27	=27
1G	2r	0G	1g	2.b-
.	2d	.	.	.
.	.	.	.	4cc
2r	2d	.	2r	[1dd
2G	2d	.	2b-	.
=28	=28	=28	=28	=28
2G	1g	0r	2b-	0dd]
2G	.	.	2b-	.
1d	2f	.	2a	.
.	2d	.	2f	.
=29	=29	=29	=29	=29
2c	2e	0r	2g	1r
2A	2.f	.	2a	.
2.B-	.	.	2f	2r
.	4e	.	.	.
.	4d	.	[2b-	2dd
4A	4c	.	.	.
=30	=30	=30	=30	=30
2G	4B-	0r	2b-]	2dd
.	4c	.	.	.
2F	1d	.	2a	2dd
1E	.	.	2.g	1gg
.	2c#	.	.	.
.	.	.	4a	.
=31	=31	=31	=31	=31
0D	1d	2r	2b-	2ff
.	.	2d	4a	2dd
.	.	.	4g	.
.	2r	2d	1a	2.ff
.	2A	2d	.	.
.	.	.	.	4ee
=32	=32	=32	=32	=32
0r	2B-	1g	2r	2dd
.	2c	.	2e	2cc
.	2d	2f	2f	1b-
.	2G	2d	2g	.
=33	=33	=33	=33	=33
0r	2.d	2.f	2a	2a
.	.	.	2d	2a
.	4e	4e	.	.
.	4f	2d	2r	2b-
.	4g	.	.	.
.	[2a	2c	2e	2cc
=34	=34	=34	=34	=34
1r	2a]	1B-	2f	1.dd
.	2g	.	2g	.
2r	2f	1A	1a	.
2A	2e	.	.	2cc#
=35	=35	=35	=35	=35
2B-	2d	1r	1g	2dd
2c	1g	.	.	4cc
.	.	.	.	4b-
1d	.	2r	1r	1a
.	2f#	2d	.	.
=36	=36	=36	=36	=36
1G	0g	2e-	1r	2g
.	.	2d	.	1dd
1r	.	2B-	2r	.
.	.	2c	2g	[2ee-
=37	=37	=37	=37	=37
0r	0r	1.g	1.b-	2ee-]
.	.	.	.	2dd
.	.	.	.	2b-
.	.	4f	2a	2cc
.	.	4e-	.	.
=38	=38	=38	=38	=38
0r	2r	1d	2f	1dd
.	1d	.	2f	.
.	.	1G	2.g	2.b-
.	[2e-	.	.	.
.	.	.	4f	4a
=39	=39	=39	=39	=39
0r	2e-]	0r	4g	4b-
.	.	.	4a	4cc
.	2d	.	2.b-	1dd
.	2B-	.	.	.
.	.	.	4a	.
.	2c	.	[2g	4cc
.	.	.	.	4b-
=40	=40	=40	=40	=40
1D	1d	1r	2g]	2a
.	.	.	2f#	2.b-
[1E-	2G	2r	2g	.
.	.	.	.	4a
.	[2B-	2G	2G	[2g
=41	=41	=41	=41	=41
2E-]	4B-]	1.B-	4G	2g]
.	4c	.	4A	.
2D	1d	.	4B-	2f
.	.	.	4c	.
2BB-	.	.	2d	2g
2C	4c	2A	2e-	[2a
.	4B-	.	.	.
=42	=42	=42	=42	=42
0D	2A	2F#	1d	2a]
.	2d	2G	.	1g
.	1d	1A	2r	.
.	.	.	2a	2f#
=43	=43	=43	=43	=43
1G	2d	1G	1b-	2g
.	2B-	.	.	2dd
2.C	1c	2r	2g	[1ee-
.	.	[2G	[2cc	.
4D	.	.	.	.
=44	=44	=44	=44	=44
4E-	2r	4G]	2cc]	2ee-]
4F	.	4A	.	.
1G	1d	4B-	4b-	2dd
.	.	4c	4a	.
.	.	2d	[1g	2b-
2C	[2c	[2e-	.	2cc
=45	=45	=45	=45	=45
1G	2c]	2e-]	2g]	1dd
.	2B	2.d	2g	.
1C	1c	.	1g	1ee-
.	.	4c	.	.
.	.	[2c	.	.
=46	=46	=46	=46	=46
[0G	[0d	2c]	[0g	[0dd
.	.	4B	.	.
.	.	4A	.	.
.	.	1B	.	.
=47	=47	=47	=47	=47
0G]	0d]	0B	0g]	0dd]
==	==	==	==	==
*-	*-	*-	*-	*-
!!!CDT: 1525/^1526/-1594/2/2
!!!OCY: Italia
!!!AGN: Mass (Parody)
!!!AST: renaissance, vocal
!!!ASW: Motet 1572 (Palestrina)
!!!PWK: Masses, Book 8
!!!RNB: Cadence finals: A,D
!!!YOR: Le Opere Complete, v. 24, p. 86
!!!YOO: Rome, Italy: Fratelli Scalera
!!!END: 1992//
!!!EED: John Miller
!!!YEC: Copyright 2000, John Miller
!!!YEN: United States of America
!!!YEM: Rights to all derivative electronic formats reserved.
!!!YEM: Refer to licensing agreement for further details.
!!!YEM: This file must be accompanied by the licensing agreement.
!!!YEM: A copy of the licensing agreement may be found at http://www.music-cog.ohio-state.edu/HumdrumDatabases/Palestrina/license.txt
!!!EMD: converted to Humdrum by Bret Aarden
